static/assets/images/tokens/usdb.svg

<svg width="256" height="256" viewBox="0 0 256 256" fill="none" xmlns="http://www.w3.org/2000/svg">
<path d="M128 256C198.692 256 256 198.692 256 128C256 57.3076 198.692 0 128 0C57.3076 0 0 57.3076 0 128C0 198.692 57.3076 256 128 256Z" fill="#FCFC03"/>
<path d="M94.72 113.92L98.3771 102.949L80.4571 90.1486L70.2171 121.234L87.9543 134.217V134.4H167.68L160 158.171H58.6971L51.7486 179.017H153.234L179.749 165.851L192.731 125.623L176.274 113.554L94.72 113.92ZM107.886 69.4857L80.4571 89.7829H201.874L208.64 69.12H108.069L107.886 69.4857Z" fill="black"/>
<path d="M110.263 214.857L167.863 36.0229H147.383L90.5143 214.857H110.263Z" fill="black"/>
</svg>

<svg xmlns="http://www.w3.org/2000/svg" fill="none" viewBox="0 0 256 256"><path fill="#FCFC03" d="M128 256c70.692 0 128-57.308 128-128S198.692 0 128 0 0 57.308 0 128s57.308 128 128 128"/><path fill="#000" d="m94.72 113.92 3.657-10.971-17.92-12.8-10.24 31.085 17.737 12.983v.183h79.726L160 158.171H58.697l-6.948 20.846h101.485l26.515-13.166 12.982-40.228-16.457-12.069zm13.166-44.434L80.457 89.783h121.417l6.766-20.663H108.069z"/><path fill="#000" d="m110.263 214.857 57.6-178.834h-20.48L90.514 214.857z"/></svg>
